svgs/thin/champagne-glass.svg

<svg xmlns="http://www.w3.org/2000/svg" viewBox="0 0 256 512"><!--! Font Awesome Pro 6.3.0 by @fontawesome - https://fontawesome.com License - https://fontawesome.com/license (Commercial License) Copyright 2023 Fonticons, Inc. --><path d="M224 496h-88V352c0-.3086-.293-.4922-.3262-.7891C202.6 347.1 256 290.9 256 221.8c0-35.09-13.27-130.1-33.02-215.6C222.1 2.562 218.9 0 215.2 0H40.81C37.09 0 33.86 2.562 33.02 6.188C13.27 91.69 0 186.7 0 221.8c0 69.11 53.38 125.3 120.3 129.4C120.3 351.5 120 351.7 120 352v144H32c-4.422 0-8 3.594-8 8S27.58 512 32 512h192c4.422 0 8-3.594 8-8S228.4 496 224 496zM47.19 16h161.6C217.8 55.59 224.8 94.27 229.9 128H26.07C31.22 94.27 38.22 55.59 47.19 16zM16 221.8c0-14.22 2.633-42.42 7.674-77.95C23.8 143.9 23.87 144 24 144h208c.127 0 .2012-.1289 .3262-.1328C237.4 179.4 240 207.6 240 221.8C240 284.8 189.8 336 128 336S16 284.8 16 221.8z"/></svg>

<svg xmlns="http://www.w3.org/2000/svg" viewBox="0 0 256 512"><!-- Font Awesome Pro 6.0.0-alpha2 by @fontawesome - https://fontawesome.com License - https://fontawesome.com/license (Commercial License) --><path d="M224 496H136V352C136 351.691 135.707 351.508 135.674 351.211C202.623 347.086 256 290.922 256 221.812C256 186.719 242.734 91.688 222.984 6.188C222.141 2.562 218.906 0 215.188 0H40.812C37.094 0 33.859 2.562 33.016 6.188C13.266 91.688 0 186.719 0 221.812C0 290.922 53.377 347.086 120.326 351.211C120.293 351.508 120 351.691 120 352V496H32C27.578 496 24 499.594 24 504S27.578 512 32 512H224C228.422 512 232 508.406 232 504S228.422 496 224 496ZM47.188 16H208.812C217.777 55.586 224.775 94.266 229.934 128H26.066C31.225 94.266 38.223 55.586 47.188 16ZM16 221.812C16 207.594 18.633 179.391 23.674 143.867C23.799 143.871 23.873 144 24 144H232C232.127 144 232.201 143.871 232.326 143.867C237.367 179.391 240 207.594 240 221.812C240 284.781 189.75 336 128 336S16 284.781 16 221.812Z"/></svg>
